packages/gestalt/src/icons/ellipsis-circle-outline.svg

<svg width="24" height="24" viewBox="0 0 24 24" xmlns="http://www.w3.org/2000/svg"><path fill="#aeaeae" d="M12.00,10.50 C12.90,10.50 13.50,11.10 13.50,12.00 C13.50,12.90 12.90,13.50 12.00,13.50 C11.10,13.50 10.50,12.90 10.50,12.00 C10.50,11.10 11.10,10.50 12.00,10.50 L12.00,10.50 Z M7.50,10.50 C8.40,10.50 9.00,11.10 9.00,12.00 C9.00,12.90 8.40,13.50 7.50,13.50 C6.60,13.50 6.00,12.90 6.00,12.00 C6.00,11.10 6.60,10.50 7.50,10.50 L7.50,10.50 Z M16.50,10.50 C17.40,10.50 18.00,11.10 18.00,12.00 C18.00,12.90 17.40,13.50 16.50,13.50 C15.60,13.50 15.00,12.90 15.00,12.00 C15.00,11.10 15.60,10.50 16.50,10.50 L16.50,10.50 Z M12.00,0.00 C5.40,0.00 0.00,5.40 0.00,12.00 C0.00,18.60 5.40,24.00 12.00,24.00 C18.60,24.00 24.00,18.60 24.00,12.00 C24.00,5.40 18.60,0.00 12.00,0.00 L12.00,0.00 Z M12.00,22.20 C6.45,22.20 1.80,17.70 1.80,12.00 C1.80,6.30 6.30,1.80 12.00,1.80 C17.70,1.80 22.20,6.30 22.20,12.00 C22.20,17.70 17.55,22.20 12.00,22.20 L12.00,22.20 Z"/></svg>

<svg width="24" height="24" xmlns="http://www.w3.org/2000/svg"><path fill="#aeaeae" d="M12 10.5c.9 0 1.5.6 1.5 1.5s-.6 1.5-1.5 1.5-1.5-.6-1.5-1.5.6-1.5 1.5-1.5zm-4.5 0c.9 0 1.5.6 1.5 1.5s-.6 1.5-1.5 1.5S6 12.9 6 12s.6-1.5 1.5-1.5zm9 0c.9 0 1.5.6 1.5 1.5s-.6 1.5-1.5 1.5S15 12.9 15 12s.6-1.5 1.5-1.5zM12 0C5.4 0 0 5.4 0 12s5.4 12 12 12 12-5.4 12-12S18.6 0 12 0zm0 22.2C6.45 22.2 1.8 17.7 1.8 12 1.8 6.3 6.3 1.8 12 1.8c5.7 0 10.2 4.5 10.2 10.2 0 5.7-4.65 10.2-10.2 10.2z"/></svg>
